!!!SOCIAL_FUNCTION:	klokali songs
!!!PDT:	1939
!!!OTL: No_42_Klokali_Song_Learned_From_a_Slave_(b).krn
!!!LANG: Non-Tone
!!!LING_GROUP: Wakashan
!!!REG: Pacific Northwest
**kern
*staff1
=1-
*clefF4
*k[b-e-]
8.B-\L
16A\Jk
8B-\L
16A\L
16A\JJ
=2
8B-\L
16G\L
16G\JJ
8A\
8r
=3||
*M3/4
8B-;\L
16B-\L
16G\JJ
4.A\
8r
=4!|:
12A\L
12G\
12A\J
8G\
16r
16G\
8G\
16r
16G\
=5||
*M2/4
16A\LK
[8.G\J
8G\]
8r
=6||
*M3/4
16A\LL
16A-\
16G\
16An\JJ
8G\
16r
16F\
8.F\L
16G\Jk
=7||
*M2/4
12G\L
12G\
12G\J
8G\
8r
=8
16A\LK
8.G\J
8.G\L
16G\Jk
=9||
*M3/4
4G\
8G\
8r
16G\LL
16F\
16G\JJ
32r
32G\
=10
4G\
8G\
8r
(16G\LL
16F\)
16G\JJ
32r
32G\
=11||
*M2/4
4G\
8G\
8r
=12
8.G\L
16G\Jk
8.A\L
16G\Jk
=13
12F\L
12D\
12En\J
8E\
16r
16G\
=14
12G\L
12G\
12G\J
8A\
8r
=15
8.B-\L
16B-\Jk
8.B-\L
16B-\Jk
=16
12B-\L
12G\
12A\J
8A\
8r
=17
8B-\
24G\LL
24G\
24B-\JJ
4A\
==:|!
*-
